brandFactory_export/1.Light/Documento_Archivo PSD_1Light.svg

<?xml version="1.0" encoding="UTF-8"?>
<svg width="24px" height="24px" viewBox="0 0 24 24" version="1.1" xmlns="http://www.w3.org/2000/svg" xmlns:xlink="http://www.w3.org/1999/xlink">
    <title>1.Light/Documento_Archivo PSD_1Light</title>
    <g id="Symbols" stroke="none" stroke-width="1" fill="none" fill-rule="evenodd">
        <g id="1.Light/Documento_Archivo-PSD_1Light" fill="#5CB615" fill-rule="nonzero">
            <path d="M16.3092437,0.00672268908 C16.5243697,0.00672268908 16.7294118,0.0907563025 16.887395,0.238655462 L23.3781513,6.5210084 C23.4857143,6.62521008 23.5495798,6.75966387 23.5831933,6.90756303 C23.610084,6.96806723 23.6235294,7.03193277 23.6235294,7.10252101 L23.6235294,22.1781513 C23.6235294,22.9613445 22.9478992,23.6235294 22.1478992,23.6235294 L7.22352941,23.6235294 C6.43697479,23.6235294 5.74453782,22.9478992 5.74453782,22.1781513 L5.78823529,18.5344538 L2.71932773,18.5344538 C1.22016807,18.5344538 2.19122498e-10,17.3142857 2.19122498e-10,15.8117647 L2.19122498e-10,10.7966387 C2.19122498e-10,9.29411765 1.22016807,8.07394958 2.71932773,8.07394958 L5.74453782,8.07394958 L5.74453782,1.45210084 C5.74453782,0.695798319 6.44705882,0.00672268908 7.22352941,0.00672268908 L16.3092437,0.00672268908 Z M15.4823529,0.994957983 L7.22016807,0.994957983 C6.99831933,0.994957983 6.73277311,1.24033613 6.73277311,1.4487395 L6.73277311,8.07058824 L14.7798319,8.07058824 C16.2789916,8.07058824 17.4991597,9.2907563 17.4991597,10.7932773 L17.4991597,15.8084034 C17.4991597,17.3109244 16.2789916,18.5310924 14.7798319,18.5310924 L6.77983193,18.5310924 L6.73613445,22.1815126 C6.73613445,22.4 6.98151261,22.6285714 7.22352941,22.6285714 L22.1478992,22.6285714 L22.1478992,22.6319328 C22.3966387,22.6319328 22.6352941,22.410084 22.6352941,22.1781513 L22.6352941,7.91932773 L19.5563025,7.91932773 C18.3798319,7.91932773 17.3647059,7.5394958 16.6252101,6.82352941 C15.8789916,6.10084034 15.4823529,5.1092437 15.4823529,3.96302521 L15.4823529,0.994957983 Z M14.7831933,9.06218487 L2.71932773,9.06218487 C1.76806723,9.06218487 0.991596639,9.83865546 0.991596639,10.7932773 L0.991596639,15.8084034 C0.991596639,16.7630252 1.76470588,17.5394958 2.71932773,17.5394958 L14.7831933,17.5394958 C15.7344538,17.5394958 16.5109244,16.7630252 16.5109244,15.8084034 L16.5109244,10.7932773 C16.5109244,9.83865546 15.7378151,9.06218487 14.7831933,9.06218487 Z M8.52773109,11.0554622 C8.95798319,11.0554622 9.42521008,11.1193277 9.76806723,11.2369748 L9.61344538,11.989916 C9.25042017,11.892437 8.8605042,11.8352941 8.54789916,11.8352941 C8.00336134,11.8352941 7.82857143,12.0302521 7.82857143,12.3092437 C7.82857143,13.1798319 10.0941176,12.5815126 10.0941176,14.3159664 C10.0941176,14.712605 9.95630252,15.0285714 9.72436975,15.2504202 C9.41176471,15.5428571 8.99159664,15.6739496 8.35294118,15.6739496 C7.78823529,15.6705882 7.32773109,15.6 6.88067227,15.4420168 L7.03529412,14.6689076 C7.42521008,14.8067227 7.93613445,14.8907563 8.26218487,14.8907563 C8.8605042,14.8907563 9.1394958,14.7361345 9.1394958,14.3260504 C9.1394958,13.4957983 6.87394958,14.097479 6.87394958,12.3529412 C6.87394958,11.4521008 7.58319328,11.0554622 8.52773109,11.0554622 Z M4.54789916,11.1394958 C5.24369748,11.1394958 5.68403361,11.2369748 5.9697479,11.502521 C6.20840336,11.7243697 6.32605042,12.0672269 6.32605042,12.5411765 C6.32605042,13.0151261 6.21512605,13.3714286 5.99327731,13.6201681 C5.73445378,13.912605 5.33109244,14.0504202 4.74621849,14.0504202 L4.03361345,14.0504202 L4.03361345,15.5831933 L3.02184874,15.5831933 L3.02184874,11.1394958 L4.54789916,11.1394958 Z M12.2420168,11.1394958 C13.0857143,11.1394958 13.6436975,11.2705882 14.0134454,11.6403361 C14.3697479,11.989916 14.5512605,12.5411765 14.5512605,13.3411765 C14.5512605,14.1478992 14.3764706,14.7058824 14.0134454,15.0823529 C13.6806723,15.4184874 13.1697479,15.5831933 12.3764706,15.5831933 L10.8705882,15.5831933 L10.8705882,11.1394958 L12.2420168,11.1394958 Z M12.1983193,11.8789916 L11.8857143,11.8789916 L11.8857143,14.8403361 L12.3159664,14.8403361 C12.7697479,14.8403361 13.0957983,14.702521 13.2705882,14.4436975 C13.4453782,14.1848739 13.5058824,13.8857143 13.5058824,13.3411765 C13.5058824,12.7058824 13.4084034,12.4067227 13.1932773,12.1714286 C12.9915966,11.9563025 12.692437,11.8789916 12.1983193,11.8789916 Z M4.51092437,11.8756303 L4.03361345,11.8756303 L4.03361345,13.2907563 L4.53445378,13.2907563 L4.53445378,13.287395 C4.8605042,13.287395 4.99495798,13.2403361 5.12605042,13.1193277 C5.24369748,13.0016807 5.30084034,12.8134454 5.30084034,12.5546218 C5.30084034,12.3159664 5.25042017,12.1378151 5.13277311,12.0302521 C5.00840336,11.9193277 4.82016807,11.8756303 4.51092437,11.8756303 Z M16.4705882,1.21008403 L16.4705882,3.95966387 C16.4705882,4.83361345 16.7596639,5.57647059 17.3109244,6.10756303 C17.8655462,6.64201681 18.6386555,6.92436975 19.5529412,6.92436975 L22.3731092,6.92436975 L16.4705882,1.21008403 Z" id="Documento_Archivo-PSD_1Light"></path>
        </g>
    </g>
</svg>

<svg width="24" height="24" viewBox="0 0 24 24" xmlns="http://www.w3.org/2000/svg"><path d="M16.31.007c.214 0 .42.084.577.232l6.491 6.282a.76.76 0 01.205.387.47.47 0 01.04.195v15.075c0 .783-.675 1.446-1.475 1.446H7.224c-.787 0-1.48-.676-1.48-1.446l.044-3.644H2.72C1.22 18.534 0 17.314 0 15.812v-5.015a2.723 2.723 0 012.72-2.723h3.025V1.452c0-.756.702-1.445 1.479-1.445h9.085zm-.828.988H7.22c-.222 0-.487.245-.487.454V8.07h8.047c1.499 0 2.72 1.22 2.72 2.722v5.015a2.723 2.723 0 01-2.72 2.723h-8l-.044 3.65c0 .219.246.448.488.448h14.924v.003c.249 0 .487-.222.487-.454V7.92h-3.079c-1.176 0-2.191-.38-2.93-1.095-.747-.723-1.144-1.715-1.144-2.861V.995zm-.699 8.067H2.72c-.95 0-1.727.777-1.727 1.731v5.015a1.73 1.73 0 001.727 1.731h12.064c.951 0 1.728-.776 1.728-1.73v-5.016a1.73 1.73 0 00-1.728-1.73zm-6.255 1.993c.43 0 .897.064 1.24.182l-.155.753a4.34 4.34 0 00-1.065-.155c-.545 0-.72.195-.72.474 0 .87 2.266.273 2.266 2.007 0 .397-.138.713-.37.934-.312.293-.732.424-1.371.424-.565-.003-1.025-.074-1.472-.232l.154-.773c.39.138.901.222 1.227.222.599 0 .877-.155.877-.565 0-.83-2.265-.229-2.265-1.973 0-.9.71-1.298 1.654-1.298zm-3.98.084c.696 0 1.136.098 1.422.364.238.221.356.564.356 1.038 0 .474-.11.83-.333 1.08-.259.292-.662.43-1.247.43h-.712v1.532H3.022V11.14h1.526zm7.694 0c.844 0 1.402.132 1.771.501.357.35.538.901.538 1.701 0 .807-.175 1.365-.538 1.741-.332.336-.843.501-1.637.501h-1.505V11.14h1.371zm-.044.74h-.312v2.961h.43c.454 0 .78-.137.955-.396.174-.26.235-.558.235-1.103 0-.635-.098-.934-.313-1.17-.201-.215-.5-.292-.995-.292zm-7.687-.003h-.477v1.415h.5v-.004c.327 0 .461-.047.592-.168.118-.117.175-.306.175-.564 0-.239-.05-.417-.168-.525-.125-.11-.313-.154-.622-.154zM16.47 1.21v2.75c0 .874.289 1.616.84 2.148.555.534 1.328.816 2.242.816h2.82L16.471 1.21z" fill="#5CB615" fill-rule="nonzero"/></svg>
